X: 305623
M: 6/8
L: 1/8
K: Amix
(cA).A (eA).A | cBA GAB | (cA).A (eA).A | dcB A2 a |\
(cA).A (eA).A | cBA GAB | A2a e2c | dcB A2 :|
|: z |\
gag gfg | dBd GAB | [a2A2][aA] e2c | dcB A2 :|


